symbols/web/bus_alert/materialsymbolssharp/bus_alert_wght100grad200fill1_40px.svg

<svg xmlns="http://www.w3.org/2000/svg" height="40" width="40"><path d="M10.458 27.875q.75 0 1.25-.521t.5-1.271q0-.708-.52-1.25-.521-.541-1.271-.541-.709 0-1.25.541-.542.542-.542 1.292t.542 1.25q.541.5 1.291.5Zm12 0q.75 0 1.271-.521.521-.521.521-1.271 0-.708-.542-1.25-.541-.541-1.291-.541-.75 0-1.25.541-.5.542-.5 1.292t.521 1.25q.52.5 1.27.5ZM29.75 17q-2.875 0-4.875-2t-2-4.875q0-2.875 2-4.854t4.875-1.979q2.875 0 4.875 1.979t2 4.854q0 2.875-2 4.875t-4.875 2Zm-.625-5.75h1.25V5.958h-1.25Zm.625 3.208q.333 0 .604-.27.271-.271.271-.605 0-.333-.271-.583-.271-.25-.604-.25-.333 0-.583.25-.25.25-.25.583 0 .334.25.605.25.27.583.27ZM7.75 35v-3.75q-.917-.208-1.896-1.479-.979-1.271-.979-2.813v-15.5q0-1.333.792-2.291.791-.959 2.521-1.542 1.729-.583 4.479-.812 2.75-.23 6.75-.063-.542 1.125-.521 2.771.021 1.646.312 2.729H6.167v8.333h20.416q.292.084.959.209.666.125.458.125v6.041q0 1.542-.979 2.813-.979 1.271-1.896 1.479V35h-1.333v-3.375H9.083V35Z"/></svg>

<svg xmlns="http://www.w3.org/2000/svg" height="40" width="40"><path d="M10.458 27.875Q11.208 27.875 11.708 27.354Q12.208 26.833 12.208 26.083Q12.208 25.375 11.688 24.833Q11.167 24.292 10.417 24.292Q9.708 24.292 9.167 24.833Q8.625 25.375 8.625 26.125Q8.625 26.875 9.167 27.375Q9.708 27.875 10.458 27.875ZM22.458 27.875Q23.208 27.875 23.729 27.354Q24.25 26.833 24.25 26.083Q24.25 25.375 23.708 24.833Q23.167 24.292 22.417 24.292Q21.667 24.292 21.167 24.833Q20.667 25.375 20.667 26.125Q20.667 26.875 21.188 27.375Q21.708 27.875 22.458 27.875ZM29.75 17Q26.875 17 24.875 15Q22.875 13 22.875 10.125Q22.875 7.25 24.875 5.271Q26.875 3.292 29.75 3.292Q32.625 3.292 34.625 5.271Q36.625 7.25 36.625 10.125Q36.625 13 34.625 15Q32.625 17 29.75 17ZM29.125 11.25H30.375V5.958H29.125ZM29.75 14.458Q30.083 14.458 30.354 14.188Q30.625 13.917 30.625 13.583Q30.625 13.25 30.354 13Q30.083 12.75 29.75 12.75Q29.417 12.75 29.167 13Q28.917 13.25 28.917 13.583Q28.917 13.917 29.167 14.188Q29.417 14.458 29.75 14.458ZM7.75 35V31.25Q6.833 31.042 5.854 29.771Q4.875 28.5 4.875 26.958V11.458Q4.875 10.125 5.667 9.167Q6.458 8.208 8.188 7.625Q9.917 7.042 12.667 6.813Q15.417 6.583 19.417 6.75Q18.875 7.875 18.896 9.521Q18.917 11.167 19.208 12.25H6.167V20.583H26.583Q26.875 20.667 27.542 20.792Q28.208 20.917 28 20.917V26.958Q28 28.5 27.021 29.771Q26.042 31.042 25.125 31.25V35H23.792V31.625H9.083V35Z"/></svg>
